!!!COM: Robert Franz
!!!CNT: Deutscher
!!!TXO: Deutsche 
!!!OTL: Der Fichtenbaum
!!!OPS: Op 16
!!!ONM: No. 3
!!!ONB: Original key: Db major
!!!LYR: H. Heine
!!!ENC: Brian Bice
!!!YOR: Vocal Album, G. Schirmer, Inc., 1907
!!!ODT: 1856/
!!NB: Vocal melody and text only encoded.
**kern	**silbe
*clefG2	*
*k[b-e-]	*
*M4/4	*
=2	=2
2r	.
4r	.
{4d	{Ein
=3	=3
4.B-	Fich-
8c	-ten-
4d	-baum
4b-	steht
=4	=4
(4.a	ein-
8b-)	|
4cc}	-sam}
{4dd	{im
=5	=5
4ee-	Nor-
8a	-den
8a	auf
4b-	kah-
4en	-ler
=6	=6
2.f}	Ho2'h
4r	.
=7	=7
2.r	.
{4f	{ihn
=8	=8
([1f	schla2-
=9	=9
2.f]	|
4en)	|
=10	=10
4d}	-fert;}
{(8f	{mit
8g)	|
4.a	wei-
8b-	-sser
=11	=11
4a	De-
4g}	-cke}
4r	.
{4f	{um-
=12	=12
8en	-hu2l-
8en	-len
4en	ihn
4en	Eis
4f	und
=13	=13
2.g}	Schnee,}
{4b-	{um-
=14	=14
8d	hu2l-
8d	-len
4d	ihn
4f	Eis
4en	und
=15	=15
2.d}	Schnee.}
4r	.
=22	=22
2.r	.
{4f	{Er
=23	=23
4.b-	tra2umt
8a	von
4b-	ei-
4cc	-ner
=24	=24
(4.dd	Pal-
8b-)	|
4f}	-me,}
8r	.
{8b-	{die
=25	=25
(4b-	fern
8a-)	|
8g-	im
4f	Mor-
4e-	-gen-
=26	=26
(4f	-land
8d)}	|}
8r	.
2r	.
=27	=27
{4b-	{ein-
8cc	-sam
8dd-	und
4cc	schwei-
4b-	-gend
=28	=28
(4.cc	trau-
8dd-)	|
4ee-}	-ert}
8r	.
{8a	{auf
=29	=29
4b-	bren-
8f	-nen-
8d	-der
(4g-	Fel-
8f)	|
8e-	-sen-
=30	=30
(4f	-wand.
8d)}	|}
8r	.
2r	.
*-	*-
